%
(Header)
(Generated by gcodetools from Inkscape.)
(Using default header. To add your own header create file "header" in the output dir.)
M3
(Header end.)
G21 (All units in mm)

(Start cutting path id: rect17422)
(Change tool to Cylindrical cutter)

G00 Z45.000000
G00 X37.467481 Y81.559899

G01 Z37.000000 F100.0(Penetrate)
G03 X21.825652 Y76.190615 Z37.000000 I1.446392 J-29.682216 F200.000000
G03 X11.475889 Y63.291840 Z37.000000 I17.088221 J-24.312932
G03 X9.623417 Y46.858205 Z37.000000 I27.437985 J-11.414157
G03 X16.841931 Y31.979056 Z37.000000 I29.290456 J5.019478
G01 X15.340987 Y31.979056 Z37.000000
G03 X11.008601 Y30.121395 Z37.000000 I-0.000000 J-5.980767
G03 X9.148352 Y25.468342 Z37.000000 I4.889232 J-4.653053
G01 X9.148352 Y15.945811 Z37.000000
G03 X11.008600 Y11.292751 Z37.000000 I6.749502 J0.000000
G03 X15.340987 Y9.435085 Z37.000000 I4.332388 J4.123095
G01 X59.315655 Y9.435085 Z37.000000
G03 X63.642201 Y11.293740 Z37.000000 I0.000049 J5.964842
G03 X65.498351 Y15.945811 Z37.000000 I-4.901668 J4.652071
G01 X65.498351 Y25.468342 Z37.000000
G03 X64.085364 Y29.619763 Z37.000000 I-6.805028 J-0.000000
G03 X60.747019 Y31.800135 Z37.000000 I-4.789765 J-3.687719
G03 X63.321633 Y35.007429 Z37.000000 I-21.831581 J20.162045
G03 X65.428772 Y38.539472 Z37.000000 I-24.406195 J16.954752
G01 X38.869025 Y51.878985 Z37.000000
G01 X65.498351 Y65.059460 Z37.000000
G03 X53.940830 Y77.485173 Z37.000000 I-26.632794 J-13.184092
G03 X37.467481 Y81.559899 Z37.000000 I-15.075273 J-25.609805
G01 X37.467481 Y81.559899 Z37.000000
G00 Z45.000000

(End cutting path id: rect17422)


(Start cutting path id: rect17422)
(Change tool to Cylindrical cutter)

G00 Z45.000000
G00 X37.467481 Y81.559899

G01 Z36.000000 F100.0(Penetrate)
G03 X21.825652 Y76.190615 Z36.000000 I1.446392 J-29.682216 F200.000000
G03 X11.475889 Y63.291840 Z36.000000 I17.088221 J-24.312932
G03 X9.623417 Y46.858205 Z36.000000 I27.437985 J-11.414157
G03 X16.841931 Y31.979056 Z36.000000 I29.290456 J5.019478
G01 X15.340987 Y31.979056 Z36.000000
G03 X11.008601 Y30.121395 Z36.000000 I-0.000000 J-5.980767
G03 X9.148352 Y25.468342 Z36.000000 I4.889232 J-4.653053
G01 X9.148352 Y15.945811 Z36.000000
G03 X11.008600 Y11.292751 Z36.000000 I6.749502 J0.000000
G03 X15.340987 Y9.435085 Z36.000000 I4.332388 J4.123095
G01 X59.315655 Y9.435085 Z36.000000
G03 X63.642201 Y11.293740 Z36.000000 I0.000049 J5.964842
G03 X65.498351 Y15.945811 Z36.000000 I-4.901668 J4.652071
G01 X65.498351 Y25.468342 Z36.000000
G03 X64.085364 Y29.619763 Z36.000000 I-6.805028 J-0.000000
G03 X60.747019 Y31.800135 Z36.000000 I-4.789765 J-3.687719
G03 X63.321633 Y35.007429 Z36.000000 I-21.831581 J20.162045
G03 X65.428772 Y38.539472 Z36.000000 I-24.406195 J16.954752
G01 X38.869025 Y51.878985 Z36.000000
G01 X65.498351 Y65.059460 Z36.000000
G03 X53.940830 Y77.485173 Z36.000000 I-26.632794 J-13.184092
G03 X37.467481 Y81.559899 Z36.000000 I-15.075273 J-25.609805
G01 X37.467481 Y81.559899 Z36.000000
G00 Z45.000000

(End cutting path id: rect17422)


(Start cutting path id: rect17422)
(Change tool to Cylindrical cutter)

G00 Z45.000000
G00 X37.467481 Y81.559899

G01 Z35.000000 F100.0(Penetrate)
G03 X21.825652 Y76.190615 Z35.000000 I1.446392 J-29.682216 F200.000000
G03 X11.475889 Y63.291840 Z35.000000 I17.088221 J-24.312932
G03 X9.623417 Y46.858205 Z35.000000 I27.437985 J-11.414157
G03 X16.841931 Y31.979056 Z35.000000 I29.290456 J5.019478
G01 X15.340987 Y31.979056 Z35.000000
G03 X11.008601 Y30.121395 Z35.000000 I-0.000000 J-5.980767
G03 X9.148352 Y25.468342 Z35.000000 I4.889232 J-4.653053
G01 X9.148352 Y15.945811 Z35.000000
G03 X11.008600 Y11.292751 Z35.000000 I6.749502 J0.000000
G03 X15.340987 Y9.435085 Z35.000000 I4.332388 J4.123095
G01 X59.315655 Y9.435085 Z35.000000
G03 X63.642201 Y11.293740 Z35.000000 I0.000049 J5.964842
G03 X65.498351 Y15.945811 Z35.000000 I-4.901668 J4.652071
G01 X65.498351 Y25.468342 Z35.000000
G03 X64.085364 Y29.619763 Z35.000000 I-6.805028 J-0.000000
G03 X60.747019 Y31.800135 Z35.000000 I-4.789765 J-3.687719
G03 X63.321633 Y35.007429 Z35.000000 I-21.831581 J20.162045
G03 X65.428772 Y38.539472 Z35.000000 I-24.406195 J16.954752
G01 X38.869025 Y51.878985 Z35.000000
G01 X65.498351 Y65.059460 Z35.000000
G03 X53.940830 Y77.485173 Z35.000000 I-26.632794 J-13.184092
G03 X37.467481 Y81.559899 Z35.000000 I-15.075273 J-25.609805
G01 X37.467481 Y81.559899 Z35.000000
G00 Z45.000000

(End cutting path id: rect17422)


(Start cutting path id: rect17422)
(Change tool to Cylindrical cutter)

G00 Z45.000000
G00 X37.467481 Y81.559899

G01 Z34.000000 F100.0(Penetrate)
G03 X21.825652 Y76.190615 Z34.000000 I1.446392 J-29.682216 F200.000000
G03 X11.475889 Y63.291840 Z34.000000 I17.088221 J-24.312932
G03 X9.623417 Y46.858205 Z34.000000 I27.437985 J-11.414157
G03 X16.841931 Y31.979056 Z34.000000 I29.290456 J5.019478
G01 X15.340987 Y31.979056 Z34.000000
G03 X11.008601 Y30.121395 Z34.000000 I-0.000000 J-5.980767
G03 X9.148352 Y25.468342 Z34.000000 I4.889232 J-4.653053
G01 X9.148352 Y15.945811 Z34.000000
G03 X11.008600 Y11.292751 Z34.000000 I6.749502 J0.000000
G03 X15.340987 Y9.435085 Z34.000000 I4.332388 J4.123095
G01 X59.315655 Y9.435085 Z34.000000
G03 X63.642201 Y11.293740 Z34.000000 I0.000049 J5.964842
G03 X65.498351 Y15.945811 Z34.000000 I-4.901668 J4.652071
G01 X65.498351 Y25.468342 Z34.000000
G03 X64.085364 Y29.619763 Z34.000000 I-6.805028 J-0.000000
G03 X60.747019 Y31.800135 Z34.000000 I-4.789765 J-3.687719
G03 X63.321633 Y35.007429 Z34.000000 I-21.831581 J20.162045
G03 X65.428772 Y38.539472 Z34.000000 I-24.406195 J16.954752
G01 X38.869025 Y51.878985 Z34.000000
G01 X65.498351 Y65.059460 Z34.000000
G03 X53.940830 Y77.485173 Z34.000000 I-26.632794 J-13.184092
G03 X37.467481 Y81.559899 Z34.000000 I-15.075273 J-25.609805
G01 X37.467481 Y81.559899 Z34.000000
G00 Z45.000000

(End cutting path id: rect17422)


(Start cutting path id: rect17422)
(Change tool to Cylindrical cutter)

G00 Z45.000000
G00 X37.467481 Y81.559899

G01 Z33.000000 F100.0(Penetrate)
G03 X21.825652 Y76.190615 Z33.000000 I1.446392 J-29.682216 F200.000000
G03 X11.475889 Y63.291840 Z33.000000 I17.088221 J-24.312932
G03 X9.623417 Y46.858205 Z33.000000 I27.437985 J-11.414157
G03 X16.841931 Y31.979056 Z33.000000 I29.290456 J5.019478
G01 X15.340987 Y31.979056 Z33.000000
G03 X11.008601 Y30.121395 Z33.000000 I-0.000000 J-5.980767
G03 X9.148352 Y25.468342 Z33.000000 I4.889232 J-4.653053
G01 X9.148352 Y15.945811 Z33.000000
G03 X11.008600 Y11.292751 Z33.000000 I6.749502 J0.000000
G03 X15.340987 Y9.435085 Z33.000000 I4.332388 J4.123095
G01 X59.315655 Y9.435085 Z33.000000
G03 X63.642201 Y11.293740 Z33.000000 I0.000049 J5.964842
G03 X65.498351 Y15.945811 Z33.000000 I-4.901668 J4.652071
G01 X65.498351 Y25.468342 Z33.000000
G03 X64.085364 Y29.619763 Z33.000000 I-6.805028 J-0.000000
G03 X60.747019 Y31.800135 Z33.000000 I-4.789765 J-3.687719
G03 X63.321633 Y35.007429 Z33.000000 I-21.831581 J20.162045
G03 X65.428772 Y38.539472 Z33.000000 I-24.406195 J16.954752
G01 X38.869025 Y51.878985 Z33.000000
G01 X65.498351 Y65.059460 Z33.000000
G03 X53.940830 Y77.485173 Z33.000000 I-26.632794 J-13.184092
G03 X37.467481 Y81.559899 Z33.000000 I-15.075273 J-25.609805
G01 X37.467481 Y81.559899 Z33.000000
G00 Z45.000000

(End cutting path id: rect17422)


(Start cutting path id: rect17422)
(Change tool to Cylindrical cutter)

G00 Z45.000000
G00 X37.467481 Y81.559899

G01 Z32.000000 F100.0(Penetrate)
G03 X21.825652 Y76.190615 Z32.000000 I1.446392 J-29.682216 F200.000000
G03 X11.475889 Y63.291840 Z32.000000 I17.088221 J-24.312932
G03 X9.623417 Y46.858205 Z32.000000 I27.437985 J-11.414157
G03 X16.841931 Y31.979056 Z32.000000 I29.290456 J5.019478
G01 X15.340987 Y31.979056 Z32.000000
G03 X11.008601 Y30.121395 Z32.000000 I-0.000000 J-5.980767
G03 X9.148352 Y25.468342 Z32.000000 I4.889232 J-4.653053
G01 X9.148352 Y15.945811 Z32.000000
G03 X11.008600 Y11.292751 Z32.000000 I6.749502 J0.000000
G03 X15.340987 Y9.435085 Z32.000000 I4.332388 J4.123095
G01 X59.315655 Y9.435085 Z32.000000
G03 X63.642201 Y11.293740 Z32.000000 I0.000049 J5.964842
G03 X65.498351 Y15.945811 Z32.000000 I-4.901668 J4.652071
G01 X65.498351 Y25.468342 Z32.000000
G03 X64.085364 Y29.619763 Z32.000000 I-6.805028 J-0.000000
G03 X60.747019 Y31.800135 Z32.000000 I-4.789765 J-3.687719
G03 X63.321633 Y35.007429 Z32.000000 I-21.831581 J20.162045
G03 X65.428772 Y38.539472 Z32.000000 I-24.406195 J16.954752
G01 X38.869025 Y51.878985 Z32.000000
G01 X65.498351 Y65.059460 Z32.000000
G03 X53.940830 Y77.485173 Z32.000000 I-26.632794 J-13.184092
G03 X37.467481 Y81.559899 Z32.000000 I-15.075273 J-25.609805
G01 X37.467481 Y81.559899 Z32.000000
G00 Z45.000000

(End cutting path id: rect17422)


(Start cutting path id: rect17422)
(Change tool to Cylindrical cutter)

G00 Z45.000000
G00 X37.467481 Y81.559899

G01 Z31.000000 F100.0(Penetrate)
G03 X21.825652 Y76.190615 Z31.000000 I1.446392 J-29.682216 F200.000000
G03 X11.475889 Y63.291840 Z31.000000 I17.088221 J-24.312932
G03 X9.623417 Y46.858205 Z31.000000 I27.437985 J-11.414157
G03 X16.841931 Y31.979056 Z31.000000 I29.290456 J5.019478
G01 X15.340987 Y31.979056 Z31.000000
G03 X11.008601 Y30.121395 Z31.000000 I-0.000000 J-5.980767
G03 X9.148352 Y25.468342 Z31.000000 I4.889232 J-4.653053
G01 X9.148352 Y15.945811 Z31.000000
G03 X11.008600 Y11.292751 Z31.000000 I6.749502 J0.000000
G03 X15.340987 Y9.435085 Z31.000000 I4.332388 J4.123095
G01 X59.315655 Y9.435085 Z31.000000
G03 X63.642201 Y11.293740 Z31.000000 I0.000049 J5.964842
G03 X65.498351 Y15.945811 Z31.000000 I-4.901668 J4.652071
G01 X65.498351 Y25.468342 Z31.000000
G03 X64.085364 Y29.619763 Z31.000000 I-6.805028 J-0.000000
G03 X60.747019 Y31.800135 Z31.000000 I-4.789765 J-3.687719
G03 X63.321633 Y35.007429 Z31.000000 I-21.831581 J20.162045
G03 X65.428772 Y38.539472 Z31.000000 I-24.406195 J16.954752
G01 X38.869025 Y51.878985 Z31.000000
G01 X65.498351 Y65.059460 Z31.000000
G03 X53.940830 Y77.485173 Z31.000000 I-26.632794 J-13.184092
G03 X37.467481 Y81.559899 Z31.000000 I-15.075273 J-25.609805
G01 X37.467481 Y81.559899 Z31.000000
G00 Z45.000000

(End cutting path id: rect17422)


(Start cutting path id: rect17422)
(Change tool to Cylindrical cutter)

G00 Z45.000000
G00 X37.467481 Y81.559899

G01 Z30.000000 F100.0(Penetrate)
G03 X21.825652 Y76.190615 Z30.000000 I1.446392 J-29.682216 F200.000000
G03 X11.475889 Y63.291840 Z30.000000 I17.088221 J-24.312932
G03 X9.623417 Y46.858205 Z30.000000 I27.437985 J-11.414157
G03 X16.841931 Y31.979056 Z30.000000 I29.290456 J5.019478
G01 X15.340987 Y31.979056 Z30.000000
G03 X11.008601 Y30.121395 Z30.000000 I-0.000000 J-5.980767
G03 X9.148352 Y25.468342 Z30.000000 I4.889232 J-4.653053
G01 X9.148352 Y15.945811 Z30.000000
G03 X11.008600 Y11.292751 Z30.000000 I6.749502 J0.000000
G03 X15.340987 Y9.435085 Z30.000000 I4.332388 J4.123095
G01 X59.315655 Y9.435085 Z30.000000
G03 X63.642201 Y11.293740 Z30.000000 I0.000049 J5.964842
G03 X65.498351 Y15.945811 Z30.000000 I-4.901668 J4.652071
G01 X65.498351 Y25.468342 Z30.000000
G03 X64.085364 Y29.619763 Z30.000000 I-6.805028 J-0.000000
G03 X60.747019 Y31.800135 Z30.000000 I-4.789765 J-3.687719
G03 X63.321633 Y35.007429 Z30.000000 I-21.831581 J20.162045
G03 X65.428772 Y38.539472 Z30.000000 I-24.406195 J16.954752
G01 X38.869025 Y51.878985 Z30.000000
G01 X65.498351 Y65.059460 Z30.000000
G03 X53.940830 Y77.485173 Z30.000000 I-26.632794 J-13.184092
G03 X37.467481 Y81.559899 Z30.000000 I-15.075273 J-25.609805
G01 X37.467481 Y81.559899 Z30.000000
G00 Z45.000000

(End cutting path id: rect17422)


(Start cutting path id: rect17422)
(Change tool to Cylindrical cutter)

G00 Z45.000000
G00 X37.467481 Y81.559899

G01 Z29.000000 F100.0(Penetrate)
G03 X21.825652 Y76.190615 Z29.000000 I1.446392 J-29.682216 F200.000000
G03 X11.475889 Y63.291840 Z29.000000 I17.088221 J-24.312932
G03 X9.623417 Y46.858205 Z29.000000 I27.437985 J-11.414157
G03 X16.841931 Y31.979056 Z29.000000 I29.290456 J5.019478
G01 X15.340987 Y31.979056 Z29.000000
G03 X11.008601 Y30.121395 Z29.000000 I-0.000000 J-5.980767
G03 X9.148352 Y25.468342 Z29.000000 I4.889232 J-4.653053
G01 X9.148352 Y15.945811 Z29.000000
G03 X11.008600 Y11.292751 Z29.000000 I6.749502 J0.000000
G03 X15.340987 Y9.435085 Z29.000000 I4.332388 J4.123095
G01 X59.315655 Y9.435085 Z29.000000
G03 X63.642201 Y11.293740 Z29.000000 I0.000049 J5.964842
G03 X65.498351 Y15.945811 Z29.000000 I-4.901668 J4.652071
G01 X65.498351 Y25.468342 Z29.000000
G03 X64.085364 Y29.619763 Z29.000000 I-6.805028 J-0.000000
G03 X60.747019 Y31.800135 Z29.000000 I-4.789765 J-3.687719
G03 X63.321633 Y35.007429 Z29.000000 I-21.831581 J20.162045
G03 X65.428772 Y38.539472 Z29.000000 I-24.406195 J16.954752
G01 X38.869025 Y51.878985 Z29.000000
G01 X65.498351 Y65.059460 Z29.000000
G03 X53.940830 Y77.485173 Z29.000000 I-26.632794 J-13.184092
G03 X37.467481 Y81.559899 Z29.000000 I-15.075273 J-25.609805
G01 X37.467481 Y81.559899 Z29.000000
G00 Z45.000000

(End cutting path id: rect17422)


(Start cutting path id: rect17422)
(Change tool to Cylindrical cutter)

G00 Z45.000000
G00 X37.467481 Y81.559899

G01 Z28.000000 F100.0(Penetrate)
G03 X21.825652 Y76.190615 Z28.000000 I1.446392 J-29.682216 F200.000000
G03 X11.475889 Y63.291840 Z28.000000 I17.088221 J-24.312932
G03 X9.623417 Y46.858205 Z28.000000 I27.437985 J-11.414157
G03 X16.841931 Y31.979056 Z28.000000 I29.290456 J5.019478
G01 X15.340987 Y31.979056 Z28.000000
G03 X11.008601 Y30.121395 Z28.000000 I-0.000000 J-5.980767
G03 X9.148352 Y25.468342 Z28.000000 I4.889232 J-4.653053
G01 X9.148352 Y15.945811 Z28.000000
G03 X11.008600 Y11.292751 Z28.000000 I6.749502 J0.000000
G03 X15.340987 Y9.435085 Z28.000000 I4.332388 J4.123095
G01 X59.315655 Y9.435085 Z28.000000
G03 X63.642201 Y11.293740 Z28.000000 I0.000049 J5.964842
G03 X65.498351 Y15.945811 Z28.000000 I-4.901668 J4.652071
G01 X65.498351 Y25.468342 Z28.000000
G03 X64.085364 Y29.619763 Z28.000000 I-6.805028 J-0.000000
G03 X60.747019 Y31.800135 Z28.000000 I-4.789765 J-3.687719
G03 X63.321633 Y35.007429 Z28.000000 I-21.831581 J20.162045
G03 X65.428772 Y38.539472 Z28.000000 I-24.406195 J16.954752
G01 X38.869025 Y51.878985 Z28.000000
G01 X65.498351 Y65.059460 Z28.000000
G03 X53.940830 Y77.485173 Z28.000000 I-26.632794 J-13.184092
G03 X37.467481 Y81.559899 Z28.000000 I-15.075273 J-25.609805
G01 X37.467481 Y81.559899 Z28.000000
G00 Z45.000000

(End cutting path id: rect17422)


(Start cutting path id: rect17422)
(Change tool to Cylindrical cutter)

G00 Z45.000000
G00 X37.467481 Y81.559899

G01 Z27.000000 F100.0(Penetrate)
G03 X21.825652 Y76.190615 Z27.000000 I1.446392 J-29.682216 F200.000000
G03 X11.475889 Y63.291840 Z27.000000 I17.088221 J-24.312932
G03 X9.623417 Y46.858205 Z27.000000 I27.437985 J-11.414157
G03 X16.841931 Y31.979056 Z27.000000 I29.290456 J5.019478
G01 X15.340987 Y31.979056 Z27.000000
G03 X11.008601 Y30.121395 Z27.000000 I-0.000000 J-5.980767
G03 X9.148352 Y25.468342 Z27.000000 I4.889232 J-4.653053
G01 X9.148352 Y15.945811 Z27.000000
G03 X11.008600 Y11.292751 Z27.000000 I6.749502 J0.000000
G03 X15.340987 Y9.435085 Z27.000000 I4.332388 J4.123095
G01 X59.315655 Y9.435085 Z27.000000
G03 X63.642201 Y11.293740 Z27.000000 I0.000049 J5.964842
G03 X65.498351 Y15.945811 Z27.000000 I-4.901668 J4.652071
G01 X65.498351 Y25.468342 Z27.000000
G03 X64.085364 Y29.619763 Z27.000000 I-6.805028 J-0.000000
G03 X60.747019 Y31.800135 Z27.000000 I-4.789765 J-3.687719
G03 X63.321633 Y35.007429 Z27.000000 I-21.831581 J20.162045
G03 X65.428772 Y38.539472 Z27.000000 I-24.406195 J16.954752
G01 X38.869025 Y51.878985 Z27.000000
G01 X65.498351 Y65.059460 Z27.000000
G03 X53.940830 Y77.485173 Z27.000000 I-26.632794 J-13.184092
G03 X37.467481 Y81.559899 Z27.000000 I-15.075273 J-25.609805
G01 X37.467481 Y81.559899 Z27.000000
G00 Z45.000000

(End cutting path id: rect17422)


(Start cutting path id: rect17422)
(Change tool to Cylindrical cutter)

G00 Z45.000000
G00 X37.467481 Y81.559899

G01 Z26.000000 F100.0(Penetrate)
G03 X21.825652 Y76.190615 Z26.000000 I1.446392 J-29.682216 F200.000000
G03 X11.475889 Y63.291840 Z26.000000 I17.088221 J-24.312932
G03 X9.623417 Y46.858205 Z26.000000 I27.437985 J-11.414157
G03 X16.841931 Y31.979056 Z26.000000 I29.290456 J5.019478
G01 X15.340987 Y31.979056 Z26.000000
G03 X11.008601 Y30.121395 Z26.000000 I-0.000000 J-5.980767
G03 X9.148352 Y25.468342 Z26.000000 I4.889232 J-4.653053
G01 X9.148352 Y15.945811 Z26.000000
G03 X11.008600 Y11.292751 Z26.000000 I6.749502 J0.000000
G03 X15.340987 Y9.435085 Z26.000000 I4.332388 J4.123095
G01 X59.315655 Y9.435085 Z26.000000
G03 X63.642201 Y11.293740 Z26.000000 I0.000049 J5.964842
G03 X65.498351 Y15.945811 Z26.000000 I-4.901668 J4.652071
G01 X65.498351 Y25.468342 Z26.000000
G03 X64.085364 Y29.619763 Z26.000000 I-6.805028 J-0.000000
G03 X60.747019 Y31.800135 Z26.000000 I-4.789765 J-3.687719
G03 X63.321633 Y35.007429 Z26.000000 I-21.831581 J20.162045
G03 X65.428772 Y38.539472 Z26.000000 I-24.406195 J16.954752
G01 X38.869025 Y51.878985 Z26.000000
G01 X65.498351 Y65.059460 Z26.000000
G03 X53.940830 Y77.485173 Z26.000000 I-26.632794 J-13.184092
G03 X37.467481 Y81.559899 Z26.000000 I-15.075273 J-25.609805
G01 X37.467481 Y81.559899 Z26.000000
G00 Z45.000000

(End cutting path id: rect17422)


(Start cutting path id: rect17422)
(Change tool to Cylindrical cutter)

G00 Z45.000000
G00 X37.467481 Y81.559899

G01 Z25.000000 F100.0(Penetrate)
G03 X21.825652 Y76.190615 Z25.000000 I1.446392 J-29.682216 F200.000000
G03 X11.475889 Y63.291840 Z25.000000 I17.088221 J-24.312932
G03 X9.623417 Y46.858205 Z25.000000 I27.437985 J-11.414157
G03 X16.841931 Y31.979056 Z25.000000 I29.290456 J5.019478
G01 X15.340987 Y31.979056 Z25.000000
G03 X11.008601 Y30.121395 Z25.000000 I-0.000000 J-5.980767
G03 X9.148352 Y25.468342 Z25.000000 I4.889232 J-4.653053
G01 X9.148352 Y15.945811 Z25.000000
G03 X11.008600 Y11.292751 Z25.000000 I6.749502 J0.000000
G03 X15.340987 Y9.435085 Z25.000000 I4.332388 J4.123095
G01 X59.315655 Y9.435085 Z25.000000
G03 X63.642201 Y11.293740 Z25.000000 I0.000049 J5.964842
G03 X65.498351 Y15.945811 Z25.000000 I-4.901668 J4.652071
G01 X65.498351 Y25.468342 Z25.000000
G03 X64.085364 Y29.619763 Z25.000000 I-6.805028 J-0.000000
G03 X60.747019 Y31.800135 Z25.000000 I-4.789765 J-3.687719
G03 X63.321633 Y35.007429 Z25.000000 I-21.831581 J20.162045
G03 X65.428772 Y38.539472 Z25.000000 I-24.406195 J16.954752
G01 X38.869025 Y51.878985 Z25.000000
G01 X65.498351 Y65.059460 Z25.000000
G03 X53.940830 Y77.485173 Z25.000000 I-26.632794 J-13.184092
G03 X37.467481 Y81.559899 Z25.000000 I-15.075273 J-25.609805
G01 X37.467481 Y81.559899 Z25.000000
G00 Z45.000000

(End cutting path id: rect17422)


(Start cutting path id: rect17422)
(Change tool to Cylindrical cutter)

G00 Z45.000000
G00 X37.467481 Y81.559899

G01 Z24.000000 F100.0(Penetrate)
G03 X21.825652 Y76.190615 Z24.000000 I1.446392 J-29.682216 F200.000000
G03 X11.475889 Y63.291840 Z24.000000 I17.088221 J-24.312932
G03 X9.623417 Y46.858205 Z24.000000 I27.437985 J-11.414157
G03 X16.841931 Y31.979056 Z24.000000 I29.290456 J5.019478
G01 X15.340987 Y31.979056 Z24.000000
G03 X11.008601 Y30.121395 Z24.000000 I-0.000000 J-5.980767
G03 X9.148352 Y25.468342 Z24.000000 I4.889232 J-4.653053
G01 X9.148352 Y15.945811 Z24.000000
G03 X11.008600 Y11.292751 Z24.000000 I6.749502 J0.000000
G03 X15.340987 Y9.435085 Z24.000000 I4.332388 J4.123095
G01 X59.315655 Y9.435085 Z24.000000
G03 X63.642201 Y11.293740 Z24.000000 I0.000049 J5.964842
G03 X65.498351 Y15.945811 Z24.000000 I-4.901668 J4.652071
G01 X65.498351 Y25.468342 Z24.000000
G03 X64.085364 Y29.619763 Z24.000000 I-6.805028 J-0.000000
G03 X60.747019 Y31.800135 Z24.000000 I-4.789765 J-3.687719
G03 X63.321633 Y35.007429 Z24.000000 I-21.831581 J20.162045
G03 X65.428772 Y38.539472 Z24.000000 I-24.406195 J16.954752
G01 X38.869025 Y51.878985 Z24.000000
G01 X65.498351 Y65.059460 Z24.000000
G03 X53.940830 Y77.485173 Z24.000000 I-26.632794 J-13.184092
G03 X37.467481 Y81.559899 Z24.000000 I-15.075273 J-25.609805
G01 X37.467481 Y81.559899 Z24.000000
G00 Z45.000000

(End cutting path id: rect17422)


(Start cutting path id: rect17422)
(Change tool to Cylindrical cutter)

G00 Z45.000000
G00 X37.467481 Y81.559899

G01 Z23.000000 F100.0(Penetrate)
G03 X21.825652 Y76.190615 Z23.000000 I1.446392 J-29.682216 F200.000000
G03 X11.475889 Y63.291840 Z23.000000 I17.088221 J-24.312932
G03 X9.623417 Y46.858205 Z23.000000 I27.437985 J-11.414157
G03 X16.841931 Y31.979056 Z23.000000 I29.290456 J5.019478
G01 X15.340987 Y31.979056 Z23.000000
G03 X11.008601 Y30.121395 Z23.000000 I-0.000000 J-5.980767
G03 X9.148352 Y25.468342 Z23.000000 I4.889232 J-4.653053
G01 X9.148352 Y15.945811 Z23.000000
G03 X11.008600 Y11.292751 Z23.000000 I6.749502 J0.000000
G03 X15.340987 Y9.435085 Z23.000000 I4.332388 J4.123095
G01 X59.315655 Y9.435085 Z23.000000
G03 X63.642201 Y11.293740 Z23.000000 I0.000049 J5.964842
G03 X65.498351 Y15.945811 Z23.000000 I-4.901668 J4.652071
G01 X65.498351 Y25.468342 Z23.000000
G03 X64.085364 Y29.619763 Z23.000000 I-6.805028 J-0.000000
G03 X60.747019 Y31.800135 Z23.000000 I-4.789765 J-3.687719
G03 X63.321633 Y35.007429 Z23.000000 I-21.831581 J20.162045
G03 X65.428772 Y38.539472 Z23.000000 I-24.406195 J16.954752
G01 X38.869025 Y51.878985 Z23.000000
G01 X65.498351 Y65.059460 Z23.000000
G03 X53.940830 Y77.485173 Z23.000000 I-26.632794 J-13.184092
G03 X37.467481 Y81.559899 Z23.000000 I-15.075273 J-25.609805
G01 X37.467481 Y81.559899 Z23.000000
G00 Z45.000000

(End cutting path id: rect17422)


(Start cutting path id: rect17422)
(Change tool to Cylindrical cutter)

G00 Z45.000000
G00 X37.467481 Y81.559899

G01 Z22.000000 F100.0(Penetrate)
G03 X21.825652 Y76.190615 Z22.000000 I1.446392 J-29.682216 F200.000000
G03 X11.475889 Y63.291840 Z22.000000 I17.088221 J-24.312932
G03 X9.623417 Y46.858205 Z22.000000 I27.437985 J-11.414157
G03 X16.841931 Y31.979056 Z22.000000 I29.290456 J5.019478
G01 X15.340987 Y31.979056 Z22.000000
G03 X11.008601 Y30.121395 Z22.000000 I-0.000000 J-5.980767
G03 X9.148352 Y25.468342 Z22.000000 I4.889232 J-4.653053
G01 X9.148352 Y15.945811 Z22.000000
G03 X11.008600 Y11.292751 Z22.000000 I6.749502 J0.000000
G03 X15.340987 Y9.435085 Z22.000000 I4.332388 J4.123095
G01 X59.315655 Y9.435085 Z22.000000
G03 X63.642201 Y11.293740 Z22.000000 I0.000049 J5.964842
G03 X65.498351 Y15.945811 Z22.000000 I-4.901668 J4.652071
G01 X65.498351 Y25.468342 Z22.000000
G03 X64.085364 Y29.619763 Z22.000000 I-6.805028 J-0.000000
G03 X60.747019 Y31.800135 Z22.000000 I-4.789765 J-3.687719
G03 X63.321633 Y35.007429 Z22.000000 I-21.831581 J20.162045
G03 X65.428772 Y38.539472 Z22.000000 I-24.406195 J16.954752
G01 X38.869025 Y51.878985 Z22.000000
G01 X65.498351 Y65.059460 Z22.000000
G03 X53.940830 Y77.485173 Z22.000000 I-26.632794 J-13.184092
G03 X37.467481 Y81.559899 Z22.000000 I-15.075273 J-25.609805
G01 X37.467481 Y81.559899 Z22.000000
G00 Z45.000000

(End cutting path id: rect17422)


(Start cutting path id: rect17422)
(Change tool to Cylindrical cutter)

G00 Z45.000000
G00 X37.467481 Y81.559899

G01 Z21.000000 F100.0(Penetrate)
G03 X21.825652 Y76.190615 Z21.000000 I1.446392 J-29.682216 F200.000000
G03 X11.475889 Y63.291840 Z21.000000 I17.088221 J-24.312932
G03 X9.623417 Y46.858205 Z21.000000 I27.437985 J-11.414157
G03 X16.841931 Y31.979056 Z21.000000 I29.290456 J5.019478
G01 X15.340987 Y31.979056 Z21.000000
G03 X11.008601 Y30.121395 Z21.000000 I-0.000000 J-5.980767
G03 X9.148352 Y25.468342 Z21.000000 I4.889232 J-4.653053
G01 X9.148352 Y15.945811 Z21.000000
G03 X11.008600 Y11.292751 Z21.000000 I6.749502 J0.000000
G03 X15.340987 Y9.435085 Z21.000000 I4.332388 J4.123095
G01 X59.315655 Y9.435085 Z21.000000
G03 X63.642201 Y11.293740 Z21.000000 I0.000049 J5.964842
G03 X65.498351 Y15.945811 Z21.000000 I-4.901668 J4.652071
G01 X65.498351 Y25.468342 Z21.000000
G03 X64.085364 Y29.619763 Z21.000000 I-6.805028 J-0.000000
G03 X60.747019 Y31.800135 Z21.000000 I-4.789765 J-3.687719
G03 X63.321633 Y35.007429 Z21.000000 I-21.831581 J20.162045
G03 X65.428772 Y38.539472 Z21.000000 I-24.406195 J16.954752
G01 X38.869025 Y51.878985 Z21.000000
G01 X65.498351 Y65.059460 Z21.000000
G03 X53.940830 Y77.485173 Z21.000000 I-26.632794 J-13.184092
G03 X37.467481 Y81.559899 Z21.000000 I-15.075273 J-25.609805
G01 X37.467481 Y81.559899 Z21.000000
G00 Z45.000000

(End cutting path id: rect17422)


(Start cutting path id: rect17422)
(Change tool to Cylindrical cutter)

G00 Z45.000000
G00 X37.467481 Y81.559899

G01 Z20.000000 F100.0(Penetrate)
G03 X21.825652 Y76.190615 Z20.000000 I1.446392 J-29.682216 F200.000000
G03 X11.475889 Y63.291840 Z20.000000 I17.088221 J-24.312932
G03 X9.623417 Y46.858205 Z20.000000 I27.437985 J-11.414157
G03 X16.841931 Y31.979056 Z20.000000 I29.290456 J5.019478
G01 X15.340987 Y31.979056 Z20.000000
G03 X11.008601 Y30.121395 Z20.000000 I-0.000000 J-5.980767
G03 X9.148352 Y25.468342 Z20.000000 I4.889232 J-4.653053
G01 X9.148352 Y15.945811 Z20.000000
G03 X11.008600 Y11.292751 Z20.000000 I6.749502 J0.000000
G03 X15.340987 Y9.435085 Z20.000000 I4.332388 J4.123095
G01 X59.315655 Y9.435085 Z20.000000
G03 X63.642201 Y11.293740 Z20.000000 I0.000049 J5.964842
G03 X65.498351 Y15.945811 Z20.000000 I-4.901668 J4.652071
G01 X65.498351 Y25.468342 Z20.000000
G03 X64.085364 Y29.619763 Z20.000000 I-6.805028 J-0.000000
G03 X60.747019 Y31.800135 Z20.000000 I-4.789765 J-3.687719
G03 X63.321633 Y35.007429 Z20.000000 I-21.831581 J20.162045
G03 X65.428772 Y38.539472 Z20.000000 I-24.406195 J16.954752
G01 X38.869025 Y51.878985 Z20.000000
G01 X65.498351 Y65.059460 Z20.000000
G03 X53.940830 Y77.485173 Z20.000000 I-26.632794 J-13.184092
G03 X37.467481 Y81.559899 Z20.000000 I-15.075273 J-25.609805
G01 X37.467481 Y81.559899 Z20.000000
G00 Z45.000000

(End cutting path id: rect17422)


(Start cutting path id: rect17422)
(Change tool to Cylindrical cutter)

G00 Z45.000000
G00 X37.467481 Y81.559899

G01 Z19.000000 F100.0(Penetrate)
G03 X21.825652 Y76.190615 Z19.000000 I1.446392 J-29.682216 F200.000000
G03 X11.475889 Y63.291840 Z19.000000 I17.088221 J-24.312932
G03 X9.623417 Y46.858205 Z19.000000 I27.437985 J-11.414157
G03 X16.841931 Y31.979056 Z19.000000 I29.290456 J5.019478
G01 X15.340987 Y31.979056 Z19.000000
G03 X11.008601 Y30.121395 Z19.000000 I-0.000000 J-5.980767
G03 X9.148352 Y25.468342 Z19.000000 I4.889232 J-4.653053
G01 X9.148352 Y15.945811 Z19.000000
G03 X11.008600 Y11.292751 Z19.000000 I6.749502 J0.000000
G03 X15.340987 Y9.435085 Z19.000000 I4.332388 J4.123095
G01 X59.315655 Y9.435085 Z19.000000
G03 X63.642201 Y11.293740 Z19.000000 I0.000049 J5.964842
G03 X65.498351 Y15.945811 Z19.000000 I-4.901668 J4.652071
G01 X65.498351 Y25.468342 Z19.000000
G03 X64.085364 Y29.619763 Z19.000000 I-6.805028 J-0.000000
G03 X60.747019 Y31.800135 Z19.000000 I-4.789765 J-3.687719
G03 X63.321633 Y35.007429 Z19.000000 I-21.831581 J20.162045
G03 X65.428772 Y38.539472 Z19.000000 I-24.406195 J16.954752
G01 X38.869025 Y51.878985 Z19.000000
G01 X65.498351 Y65.059460 Z19.000000
G03 X53.940830 Y77.485173 Z19.000000 I-26.632794 J-13.184092
G03 X37.467481 Y81.559899 Z19.000000 I-15.075273 J-25.609805
G01 X37.467481 Y81.559899 Z19.000000
G00 Z45.000000

(End cutting path id: rect17422)


(Start cutting path id: rect17422)
(Change tool to Cylindrical cutter)

G00 Z45.000000
G00 X37.467481 Y81.559899

G01 Z18.000000 F100.0(Penetrate)
G03 X21.825652 Y76.190615 Z18.000000 I1.446392 J-29.682216 F200.000000
G03 X11.475889 Y63.291840 Z18.000000 I17.088221 J-24.312932
G03 X9.623417 Y46.858205 Z18.000000 I27.437985 J-11.414157
G03 X16.841931 Y31.979056 Z18.000000 I29.290456 J5.019478
G01 X15.340987 Y31.979056 Z18.000000
G03 X11.008601 Y30.121395 Z18.000000 I-0.000000 J-5.980767
G03 X9.148352 Y25.468342 Z18.000000 I4.889232 J-4.653053
G01 X9.148352 Y15.945811 Z18.000000
G03 X11.008600 Y11.292751 Z18.000000 I6.749502 J0.000000
G03 X15.340987 Y9.435085 Z18.000000 I4.332388 J4.123095
G01 X59.315655 Y9.435085 Z18.000000
G03 X63.642201 Y11.293740 Z18.000000 I0.000049 J5.964842
G03 X65.498351 Y15.945811 Z18.000000 I-4.901668 J4.652071
G01 X65.498351 Y25.468342 Z18.000000
G03 X64.085364 Y29.619763 Z18.000000 I-6.805028 J-0.000000
G03 X60.747019 Y31.800135 Z18.000000 I-4.789765 J-3.687719
G03 X63.321633 Y35.007429 Z18.000000 I-21.831581 J20.162045
G03 X65.428772 Y38.539472 Z18.000000 I-24.406195 J16.954752
G01 X38.869025 Y51.878985 Z18.000000
G01 X65.498351 Y65.059460 Z18.000000
G03 X53.940830 Y77.485173 Z18.000000 I-26.632794 J-13.184092
G03 X37.467481 Y81.559899 Z18.000000 I-15.075273 J-25.609805
G01 X37.467481 Y81.559899 Z18.000000
G00 Z45.000000

(End cutting path id: rect17422)


(Start cutting path id: rect17422)
(Change tool to Cylindrical cutter)

G00 Z45.000000
G00 X37.467481 Y81.559899

G01 Z17.000000 F100.0(Penetrate)
G03 X21.825652 Y76.190615 Z17.000000 I1.446392 J-29.682216 F200.000000
G03 X11.475889 Y63.291840 Z17.000000 I17.088221 J-24.312932
G03 X9.623417 Y46.858205 Z17.000000 I27.437985 J-11.414157
G03 X16.841931 Y31.979056 Z17.000000 I29.290456 J5.019478
G01 X15.340987 Y31.979056 Z17.000000
G03 X11.008601 Y30.121395 Z17.000000 I-0.000000 J-5.980767
G03 X9.148352 Y25.468342 Z17.000000 I4.889232 J-4.653053
G01 X9.148352 Y15.945811 Z17.000000
G03 X11.008600 Y11.292751 Z17.000000 I6.749502 J0.000000
G03 X15.340987 Y9.435085 Z17.000000 I4.332388 J4.123095
G01 X59.315655 Y9.435085 Z17.000000
G03 X63.642201 Y11.293740 Z17.000000 I0.000049 J5.964842
G03 X65.498351 Y15.945811 Z17.000000 I-4.901668 J4.652071
G01 X65.498351 Y25.468342 Z17.000000
G03 X64.085364 Y29.619763 Z17.000000 I-6.805028 J-0.000000
G03 X60.747019 Y31.800135 Z17.000000 I-4.789765 J-3.687719
G03 X63.321633 Y35.007429 Z17.000000 I-21.831581 J20.162045
G03 X65.428772 Y38.539472 Z17.000000 I-24.406195 J16.954752
G01 X38.869025 Y51.878985 Z17.000000
G01 X65.498351 Y65.059460 Z17.000000
G03 X53.940830 Y77.485173 Z17.000000 I-26.632794 J-13.184092
G03 X37.467481 Y81.559899 Z17.000000 I-15.075273 J-25.609805
G01 X37.467481 Y81.559899 Z17.000000
G00 Z45.000000

(End cutting path id: rect17422)


(Start cutting path id: rect17422)
(Change tool to Cylindrical cutter)

G00 Z45.000000
G00 X37.467481 Y81.559899

G01 Z16.000000 F100.0(Penetrate)
G03 X21.825652 Y76.190615 Z16.000000 I1.446392 J-29.682216 F200.000000
G03 X11.475889 Y63.291840 Z16.000000 I17.088221 J-24.312932
G03 X9.623417 Y46.858205 Z16.000000 I27.437985 J-11.414157
G03 X16.841931 Y31.979056 Z16.000000 I29.290456 J5.019478
G01 X15.340987 Y31.979056 Z16.000000
G03 X11.008601 Y30.121395 Z16.000000 I-0.000000 J-5.980767
G03 X9.148352 Y25.468342 Z16.000000 I4.889232 J-4.653053
G01 X9.148352 Y15.945811 Z16.000000
G03 X11.008600 Y11.292751 Z16.000000 I6.749502 J0.000000
G03 X15.340987 Y9.435085 Z16.000000 I4.332388 J4.123095
G01 X59.315655 Y9.435085 Z16.000000
G03 X63.642201 Y11.293740 Z16.000000 I0.000049 J5.964842
G03 X65.498351 Y15.945811 Z16.000000 I-4.901668 J4.652071
G01 X65.498351 Y25.468342 Z16.000000
G03 X64.085364 Y29.619763 Z16.000000 I-6.805028 J-0.000000
G03 X60.747019 Y31.800135 Z16.000000 I-4.789765 J-3.687719
G03 X63.321633 Y35.007429 Z16.000000 I-21.831581 J20.162045
G03 X65.428772 Y38.539472 Z16.000000 I-24.406195 J16.954752
G01 X38.869025 Y51.878985 Z16.000000
G01 X65.498351 Y65.059460 Z16.000000
G03 X53.940830 Y77.485173 Z16.000000 I-26.632794 J-13.184092
G03 X37.467481 Y81.559899 Z16.000000 I-15.075273 J-25.609805
G01 X37.467481 Y81.559899 Z16.000000
G00 Z45.000000

(End cutting path id: rect17422)


(Start cutting path id: rect17422)
(Change tool to Cylindrical cutter)

G00 Z45.000000
G00 X37.467481 Y81.559899

G01 Z15.000000 F100.0(Penetrate)
G03 X21.825652 Y76.190615 Z15.000000 I1.446392 J-29.682216 F200.000000
G03 X11.475889 Y63.291840 Z15.000000 I17.088221 J-24.312932
G03 X9.623417 Y46.858205 Z15.000000 I27.437985 J-11.414157
G03 X16.841931 Y31.979056 Z15.000000 I29.290456 J5.019478
G01 X15.340987 Y31.979056 Z15.000000
G03 X11.008601 Y30.121395 Z15.000000 I-0.000000 J-5.980767
G03 X9.148352 Y25.468342 Z15.000000 I4.889232 J-4.653053
G01 X9.148352 Y15.945811 Z15.000000
G03 X11.008600 Y11.292751 Z15.000000 I6.749502 J0.000000
G03 X15.340987 Y9.435085 Z15.000000 I4.332388 J4.123095
G01 X59.315655 Y9.435085 Z15.000000
G03 X63.642201 Y11.293740 Z15.000000 I0.000049 J5.964842
G03 X65.498351 Y15.945811 Z15.000000 I-4.901668 J4.652071
G01 X65.498351 Y25.468342 Z15.000000
G03 X64.085364 Y29.619763 Z15.000000 I-6.805028 J-0.000000
G03 X60.747019 Y31.800135 Z15.000000 I-4.789765 J-3.687719
G03 X63.321633 Y35.007429 Z15.000000 I-21.831581 J20.162045
G03 X65.428772 Y38.539472 Z15.000000 I-24.406195 J16.954752
G01 X38.869025 Y51.878985 Z15.000000
G01 X65.498351 Y65.059460 Z15.000000
G03 X53.940830 Y77.485173 Z15.000000 I-26.632794 J-13.184092
G03 X37.467481 Y81.559899 Z15.000000 I-15.075273 J-25.609805
G01 X37.467481 Y81.559899 Z15.000000
G00 Z45.000000

(End cutting path id: rect17422)


(Start cutting path id: rect17422)
(Change tool to Cylindrical cutter)

G00 Z45.000000
G00 X37.467481 Y81.559899

G01 Z14.000000 F100.0(Penetrate)
G03 X21.825652 Y76.190615 Z14.000000 I1.446392 J-29.682216 F200.000000
G03 X11.475889 Y63.291840 Z14.000000 I17.088221 J-24.312932
G03 X9.623417 Y46.858205 Z14.000000 I27.437985 J-11.414157
G03 X16.841931 Y31.979056 Z14.000000 I29.290456 J5.019478
G01 X15.340987 Y31.979056 Z14.000000
G03 X11.008601 Y30.121395 Z14.000000 I-0.000000 J-5.980767
G03 X9.148352 Y25.468342 Z14.000000 I4.889232 J-4.653053
G01 X9.148352 Y15.945811 Z14.000000
G03 X11.008600 Y11.292751 Z14.000000 I6.749502 J0.000000
G03 X15.340987 Y9.435085 Z14.000000 I4.332388 J4.123095
G01 X59.315655 Y9.435085 Z14.000000
G03 X63.642201 Y11.293740 Z14.000000 I0.000049 J5.964842
G03 X65.498351 Y15.945811 Z14.000000 I-4.901668 J4.652071
G01 X65.498351 Y25.468342 Z14.000000
G03 X64.085364 Y29.619763 Z14.000000 I-6.805028 J-0.000000
G03 X60.747019 Y31.800135 Z14.000000 I-4.789765 J-3.687719
G03 X63.321633 Y35.007429 Z14.000000 I-21.831581 J20.162045
G03 X65.428772 Y38.539472 Z14.000000 I-24.406195 J16.954752
G01 X38.869025 Y51.878985 Z14.000000
G01 X65.498351 Y65.059460 Z14.000000
G03 X53.940830 Y77.485173 Z14.000000 I-26.632794 J-13.184092
G03 X37.467481 Y81.559899 Z14.000000 I-15.075273 J-25.609805
G01 X37.467481 Y81.559899 Z14.000000
G00 Z45.000000

(End cutting path id: rect17422)


(Start cutting path id: rect17422)
(Change tool to Cylindrical cutter)

G00 Z45.000000
G00 X37.467481 Y81.559899

G01 Z13.000000 F100.0(Penetrate)
G03 X21.825652 Y76.190615 Z13.000000 I1.446392 J-29.682216 F200.000000
G03 X11.475889 Y63.291840 Z13.000000 I17.088221 J-24.312932
G03 X9.623417 Y46.858205 Z13.000000 I27.437985 J-11.414157
G03 X16.841931 Y31.979056 Z13.000000 I29.290456 J5.019478
G01 X15.340987 Y31.979056 Z13.000000
G03 X11.008601 Y30.121395 Z13.000000 I-0.000000 J-5.980767
G03 X9.148352 Y25.468342 Z13.000000 I4.889232 J-4.653053
G01 X9.148352 Y15.945811 Z13.000000
G03 X11.008600 Y11.292751 Z13.000000 I6.749502 J0.000000
G03 X15.340987 Y9.435085 Z13.000000 I4.332388 J4.123095
G01 X59.315655 Y9.435085 Z13.000000
G03 X63.642201 Y11.293740 Z13.000000 I0.000049 J5.964842
G03 X65.498351 Y15.945811 Z13.000000 I-4.901668 J4.652071
G01 X65.498351 Y25.468342 Z13.000000
G03 X64.085364 Y29.619763 Z13.000000 I-6.805028 J-0.000000
G03 X60.747019 Y31.800135 Z13.000000 I-4.789765 J-3.687719
G03 X63.321633 Y35.007429 Z13.000000 I-21.831581 J20.162045
G03 X65.428772 Y38.539472 Z13.000000 I-24.406195 J16.954752
G01 X38.869025 Y51.878985 Z13.000000
G01 X65.498351 Y65.059460 Z13.000000
G03 X53.940830 Y77.485173 Z13.000000 I-26.632794 J-13.184092
G03 X37.467481 Y81.559899 Z13.000000 I-15.075273 J-25.609805
G01 X37.467481 Y81.559899 Z13.000000
G00 Z45.000000

(End cutting path id: rect17422)


(Start cutting path id: rect17422)
(Change tool to Cylindrical cutter)

G00 Z45.000000
G00 X37.467481 Y81.559899

G01 Z12.000000 F100.0(Penetrate)
G03 X21.825652 Y76.190615 Z12.000000 I1.446392 J-29.682216 F200.000000
G03 X11.475889 Y63.291840 Z12.000000 I17.088221 J-24.312932
G03 X9.623417 Y46.858205 Z12.000000 I27.437985 J-11.414157
G03 X16.841931 Y31.979056 Z12.000000 I29.290456 J5.019478
G01 X15.340987 Y31.979056 Z12.000000
G03 X11.008601 Y30.121395 Z12.000000 I-0.000000 J-5.980767
G03 X9.148352 Y25.468342 Z12.000000 I4.889232 J-4.653053
G01 X9.148352 Y15.945811 Z12.000000
G03 X11.008600 Y11.292751 Z12.000000 I6.749502 J0.000000
G03 X15.340987 Y9.435085 Z12.000000 I4.332388 J4.123095
G01 X59.315655 Y9.435085 Z12.000000
G03 X63.642201 Y11.293740 Z12.000000 I0.000049 J5.964842
G03 X65.498351 Y15.945811 Z12.000000 I-4.901668 J4.652071
G01 X65.498351 Y25.468342 Z12.000000
G03 X64.085364 Y29.619763 Z12.000000 I-6.805028 J-0.000000
G03 X60.747019 Y31.800135 Z12.000000 I-4.789765 J-3.687719
G03 X63.321633 Y35.007429 Z12.000000 I-21.831581 J20.162045
G03 X65.428772 Y38.539472 Z12.000000 I-24.406195 J16.954752
G01 X38.869025 Y51.878985 Z12.000000
G01 X65.498351 Y65.059460 Z12.000000
G03 X53.940830 Y77.485173 Z12.000000 I-26.632794 J-13.184092
G03 X37.467481 Y81.559899 Z12.000000 I-15.075273 J-25.609805
G01 X37.467481 Y81.559899 Z12.000000
G00 Z45.000000

(End cutting path id: rect17422)


(Start cutting path id: rect17422)
(Change tool to Cylindrical cutter)

G00 Z45.000000
G00 X37.467481 Y81.559899

G01 Z11.000000 F100.0(Penetrate)
G03 X21.825652 Y76.190615 Z11.000000 I1.446392 J-29.682216 F200.000000
G03 X11.475889 Y63.291840 Z11.000000 I17.088221 J-24.312932
G03 X9.623417 Y46.858205 Z11.000000 I27.437985 J-11.414157
G03 X16.841931 Y31.979056 Z11.000000 I29.290456 J5.019478
G01 X15.340987 Y31.979056 Z11.000000
G03 X11.008601 Y30.121395 Z11.000000 I-0.000000 J-5.980767
G03 X9.148352 Y25.468342 Z11.000000 I4.889232 J-4.653053
G01 X9.148352 Y15.945811 Z11.000000
G03 X11.008600 Y11.292751 Z11.000000 I6.749502 J0.000000
G03 X15.340987 Y9.435085 Z11.000000 I4.332388 J4.123095
G01 X59.315655 Y9.435085 Z11.000000
G03 X63.642201 Y11.293740 Z11.000000 I0.000049 J5.964842
G03 X65.498351 Y15.945811 Z11.000000 I-4.901668 J4.652071
G01 X65.498351 Y25.468342 Z11.000000
G03 X64.085364 Y29.619763 Z11.000000 I-6.805028 J-0.000000
G03 X60.747019 Y31.800135 Z11.000000 I-4.789765 J-3.687719
G03 X63.321633 Y35.007429 Z11.000000 I-21.831581 J20.162045
G03 X65.428772 Y38.539472 Z11.000000 I-24.406195 J16.954752
G01 X38.869025 Y51.878985 Z11.000000
G01 X65.498351 Y65.059460 Z11.000000
G03 X53.940830 Y77.485173 Z11.000000 I-26.632794 J-13.184092
G03 X37.467481 Y81.559899 Z11.000000 I-15.075273 J-25.609805
G01 X37.467481 Y81.559899 Z11.000000
G00 Z45.000000

(End cutting path id: rect17422)


(Start cutting path id: rect17422)
(Change tool to Cylindrical cutter)

G00 Z45.000000
G00 X37.467481 Y81.559899

G01 Z10.000000 F100.0(Penetrate)
G03 X21.825652 Y76.190615 Z10.000000 I1.446392 J-29.682216 F200.000000
G03 X11.475889 Y63.291840 Z10.000000 I17.088221 J-24.312932
G03 X9.623417 Y46.858205 Z10.000000 I27.437985 J-11.414157
G03 X16.841931 Y31.979056 Z10.000000 I29.290456 J5.019478
G01 X15.340987 Y31.979056 Z10.000000
G03 X11.008601 Y30.121395 Z10.000000 I-0.000000 J-5.980767
G03 X9.148352 Y25.468342 Z10.000000 I4.889232 J-4.653053
G01 X9.148352 Y15.945811 Z10.000000
G03 X11.008600 Y11.292751 Z10.000000 I6.749502 J0.000000
G03 X15.340987 Y9.435085 Z10.000000 I4.332388 J4.123095
G01 X59.315655 Y9.435085 Z10.000000
G03 X63.642201 Y11.293740 Z10.000000 I0.000049 J5.964842
G03 X65.498351 Y15.945811 Z10.000000 I-4.901668 J4.652071
G01 X65.498351 Y25.468342 Z10.000000
G03 X64.085364 Y29.619763 Z10.000000 I-6.805028 J-0.000000
G03 X60.747019 Y31.800135 Z10.000000 I-4.789765 J-3.687719
G03 X63.321633 Y35.007429 Z10.000000 I-21.831581 J20.162045
G03 X65.428772 Y38.539472 Z10.000000 I-24.406195 J16.954752
G01 X38.869025 Y51.878985 Z10.000000
G01 X65.498351 Y65.059460 Z10.000000
G03 X53.940830 Y77.485173 Z10.000000 I-26.632794 J-13.184092
G03 X37.467481 Y81.559899 Z10.000000 I-15.075273 J-25.609805
G01 X37.467481 Y81.559899 Z10.000000
G00 Z45.000000

(End cutting path id: rect17422)


(Start cutting path id: rect17422)
(Change tool to Cylindrical cutter)

G00 Z45.000000
G00 X37.467481 Y81.559899

G01 Z9.000000 F100.0(Penetrate)
G03 X21.825652 Y76.190615 Z9.000000 I1.446392 J-29.682216 F200.000000
G03 X11.475889 Y63.291840 Z9.000000 I17.088221 J-24.312932
G03 X9.623417 Y46.858205 Z9.000000 I27.437985 J-11.414157
G03 X16.841931 Y31.979056 Z9.000000 I29.290456 J5.019478
G01 X15.340987 Y31.979056 Z9.000000
G03 X11.008601 Y30.121395 Z9.000000 I-0.000000 J-5.980767
G03 X9.148352 Y25.468342 Z9.000000 I4.889232 J-4.653053
G01 X9.148352 Y15.945811 Z9.000000
G03 X11.008600 Y11.292751 Z9.000000 I6.749502 J0.000000
G03 X15.340987 Y9.435085 Z9.000000 I4.332388 J4.123095
G01 X59.315655 Y9.435085 Z9.000000
G03 X63.642201 Y11.293740 Z9.000000 I0.000049 J5.964842
G03 X65.498351 Y15.945811 Z9.000000 I-4.901668 J4.652071
G01 X65.498351 Y25.468342 Z9.000000
G03 X64.085364 Y29.619763 Z9.000000 I-6.805028 J-0.000000
G03 X60.747019 Y31.800135 Z9.000000 I-4.789765 J-3.687719
G03 X63.321633 Y35.007429 Z9.000000 I-21.831581 J20.162045
G03 X65.428772 Y38.539472 Z9.000000 I-24.406195 J16.954752
G01 X38.869025 Y51.878985 Z9.000000
G01 X65.498351 Y65.059460 Z9.000000
G03 X53.940830 Y77.485173 Z9.000000 I-26.632794 J-13.184092
G03 X37.467481 Y81.559899 Z9.000000 I-15.075273 J-25.609805
G01 X37.467481 Y81.559899 Z9.000000
G00 Z45.000000

(End cutting path id: rect17422)


(Start cutting path id: rect17422)
(Change tool to Cylindrical cutter)

G00 Z45.000000
G00 X37.467481 Y81.559899

G01 Z8.000000 F100.0(Penetrate)
G03 X21.825652 Y76.190615 Z8.000000 I1.446392 J-29.682216 F200.000000
G03 X11.475889 Y63.291840 Z8.000000 I17.088221 J-24.312932
G03 X9.623417 Y46.858205 Z8.000000 I27.437985 J-11.414157
G03 X16.841931 Y31.979056 Z8.000000 I29.290456 J5.019478
G01 X15.340987 Y31.979056 Z8.000000
G03 X11.008601 Y30.121395 Z8.000000 I-0.000000 J-5.980767
G03 X9.148352 Y25.468342 Z8.000000 I4.889232 J-4.653053
G01 X9.148352 Y15.945811 Z8.000000
G03 X11.008600 Y11.292751 Z8.000000 I6.749502 J0.000000
G03 X15.340987 Y9.435085 Z8.000000 I4.332388 J4.123095
G01 X59.315655 Y9.435085 Z8.000000
G03 X63.642201 Y11.293740 Z8.000000 I0.000049 J5.964842
G03 X65.498351 Y15.945811 Z8.000000 I-4.901668 J4.652071
G01 X65.498351 Y25.468342 Z8.000000
G03 X64.085364 Y29.619763 Z8.000000 I-6.805028 J-0.000000
G03 X60.747019 Y31.800135 Z8.000000 I-4.789765 J-3.687719
G03 X63.321633 Y35.007429 Z8.000000 I-21.831581 J20.162045
G03 X65.428772 Y38.539472 Z8.000000 I-24.406195 J16.954752
G01 X38.869025 Y51.878985 Z8.000000
G01 X65.498351 Y65.059460 Z8.000000
G03 X53.940830 Y77.485173 Z8.000000 I-26.632794 J-13.184092
G03 X37.467481 Y81.559899 Z8.000000 I-15.075273 J-25.609805
G01 X37.467481 Y81.559899 Z8.000000
G00 Z45.000000

(End cutting path id: rect17422)


(Start cutting path id: rect17422)
(Change tool to Cylindrical cutter)

G00 Z45.000000
G00 X37.467481 Y81.559899

G01 Z7.000000 F100.0(Penetrate)
G03 X21.825652 Y76.190615 Z7.000000 I1.446392 J-29.682216 F200.000000
G03 X11.475889 Y63.291840 Z7.000000 I17.088221 J-24.312932
G03 X9.623417 Y46.858205 Z7.000000 I27.437985 J-11.414157
G03 X16.841931 Y31.979056 Z7.000000 I29.290456 J5.019478
G01 X15.340987 Y31.979056 Z7.000000
G03 X11.008601 Y30.121395 Z7.000000 I-0.000000 J-5.980767
G03 X9.148352 Y25.468342 Z7.000000 I4.889232 J-4.653053
G01 X9.148352 Y15.945811 Z7.000000
G03 X11.008600 Y11.292751 Z7.000000 I6.749502 J0.000000
G03 X15.340987 Y9.435085 Z7.000000 I4.332388 J4.123095
G01 X59.315655 Y9.435085 Z7.000000
G03 X63.642201 Y11.293740 Z7.000000 I0.000049 J5.964842
G03 X65.498351 Y15.945811 Z7.000000 I-4.901668 J4.652071
G01 X65.498351 Y25.468342 Z7.000000
G03 X64.085364 Y29.619763 Z7.000000 I-6.805028 J-0.000000
G03 X60.747019 Y31.800135 Z7.000000 I-4.789765 J-3.687719
G03 X63.321633 Y35.007429 Z7.000000 I-21.831581 J20.162045
G03 X65.428772 Y38.539472 Z7.000000 I-24.406195 J16.954752
G01 X38.869025 Y51.878985 Z7.000000
G01 X65.498351 Y65.059460 Z7.000000
G03 X53.940830 Y77.485173 Z7.000000 I-26.632794 J-13.184092
G03 X37.467481 Y81.559899 Z7.000000 I-15.075273 J-25.609805
G01 X37.467481 Y81.559899 Z7.000000
G00 Z45.000000

(End cutting path id: rect17422)


(Start cutting path id: rect17422)
(Change tool to Cylindrical cutter)

G00 Z45.000000
G00 X37.467481 Y81.559899

G01 Z6.000000 F100.0(Penetrate)
G03 X21.825652 Y76.190615 Z6.000000 I1.446392 J-29.682216 F200.000000
G03 X11.475889 Y63.291840 Z6.000000 I17.088221 J-24.312932
G03 X9.623417 Y46.858205 Z6.000000 I27.437985 J-11.414157
G03 X16.841931 Y31.979056 Z6.000000 I29.290456 J5.019478
G01 X15.340987 Y31.979056 Z6.000000
G03 X11.008601 Y30.121395 Z6.000000 I-0.000000 J-5.980767
G03 X9.148352 Y25.468342 Z6.000000 I4.889232 J-4.653053
G01 X9.148352 Y15.945811 Z6.000000
G03 X11.008600 Y11.292751 Z6.000000 I6.749502 J0.000000
G03 X15.340987 Y9.435085 Z6.000000 I4.332388 J4.123095
G01 X59.315655 Y9.435085 Z6.000000
G03 X63.642201 Y11.293740 Z6.000000 I0.000049 J5.964842
G03 X65.498351 Y15.945811 Z6.000000 I-4.901668 J4.652071
G01 X65.498351 Y25.468342 Z6.000000
G03 X64.085364 Y29.619763 Z6.000000 I-6.805028 J-0.000000
G03 X60.747019 Y31.800135 Z6.000000 I-4.789765 J-3.687719
G03 X63.321633 Y35.007429 Z6.000000 I-21.831581 J20.162045
G03 X65.428772 Y38.539472 Z6.000000 I-24.406195 J16.954752
G01 X38.869025 Y51.878985 Z6.000000
G01 X65.498351 Y65.059460 Z6.000000
G03 X53.940830 Y77.485173 Z6.000000 I-26.632794 J-13.184092
G03 X37.467481 Y81.559899 Z6.000000 I-15.075273 J-25.609805
G01 X37.467481 Y81.559899 Z6.000000
G00 Z45.000000

(End cutting path id: rect17422)


(Start cutting path id: rect17422)
(Change tool to Cylindrical cutter)

G00 Z45.000000
G00 X37.467481 Y81.559899

G01 Z5.000000 F100.0(Penetrate)
G03 X21.825652 Y76.190615 Z5.000000 I1.446392 J-29.682216 F200.000000
G03 X11.475889 Y63.291840 Z5.000000 I17.088221 J-24.312932
G03 X9.623417 Y46.858205 Z5.000000 I27.437985 J-11.414157
G03 X16.841931 Y31.979056 Z5.000000 I29.290456 J5.019478
G01 X15.340987 Y31.979056 Z5.000000
G03 X11.008601 Y30.121395 Z5.000000 I-0.000000 J-5.980767
G03 X9.148352 Y25.468342 Z5.000000 I4.889232 J-4.653053
G01 X9.148352 Y15.945811 Z5.000000
G03 X11.008600 Y11.292751 Z5.000000 I6.749502 J0.000000
G03 X15.340987 Y9.435085 Z5.000000 I4.332388 J4.123095
G01 X59.315655 Y9.435085 Z5.000000
G03 X63.642201 Y11.293740 Z5.000000 I0.000049 J5.964842
G03 X65.498351 Y15.945811 Z5.000000 I-4.901668 J4.652071
G01 X65.498351 Y25.468342 Z5.000000
G03 X64.085364 Y29.619763 Z5.000000 I-6.805028 J-0.000000
G03 X60.747019 Y31.800135 Z5.000000 I-4.789765 J-3.687719
G03 X63.321633 Y35.007429 Z5.000000 I-21.831581 J20.162045
G03 X65.428772 Y38.539472 Z5.000000 I-24.406195 J16.954752
G01 X38.869025 Y51.878985 Z5.000000
G01 X65.498351 Y65.059460 Z5.000000
G03 X53.940830 Y77.485173 Z5.000000 I-26.632794 J-13.184092
G03 X37.467481 Y81.559899 Z5.000000 I-15.075273 J-25.609805
G01 X37.467481 Y81.559899 Z5.000000
G00 Z45.000000

(End cutting path id: rect17422)


(Start cutting path id: rect17422)
(Change tool to Cylindrical cutter)

G00 Z45.000000
G00 X37.467481 Y81.559899

G01 Z4.000000 F100.0(Penetrate)
G03 X21.825652 Y76.190615 Z4.000000 I1.446392 J-29.682216 F200.000000
G03 X11.475889 Y63.291840 Z4.000000 I17.088221 J-24.312932
G03 X9.623417 Y46.858205 Z4.000000 I27.437985 J-11.414157
G03 X16.841931 Y31.979056 Z4.000000 I29.290456 J5.019478
G01 X15.340987 Y31.979056 Z4.000000
G03 X11.008601 Y30.121395 Z4.000000 I-0.000000 J-5.980767
G03 X9.148352 Y25.468342 Z4.000000 I4.889232 J-4.653053
G01 X9.148352 Y15.945811 Z4.000000
G03 X11.008600 Y11.292751 Z4.000000 I6.749502 J0.000000
G03 X15.340987 Y9.435085 Z4.000000 I4.332388 J4.123095
G01 X59.315655 Y9.435085 Z4.000000
G03 X63.642201 Y11.293740 Z4.000000 I0.000049 J5.964842
G03 X65.498351 Y15.945811 Z4.000000 I-4.901668 J4.652071
G01 X65.498351 Y25.468342 Z4.000000
G03 X64.085364 Y29.619763 Z4.000000 I-6.805028 J-0.000000
G03 X60.747019 Y31.800135 Z4.000000 I-4.789765 J-3.687719
G03 X63.321633 Y35.007429 Z4.000000 I-21.831581 J20.162045
G03 X65.428772 Y38.539472 Z4.000000 I-24.406195 J16.954752
G01 X38.869025 Y51.878985 Z4.000000
G01 X65.498351 Y65.059460 Z4.000000
G03 X53.940830 Y77.485173 Z4.000000 I-26.632794 J-13.184092
G03 X37.467481 Y81.559899 Z4.000000 I-15.075273 J-25.609805
G01 X37.467481 Y81.559899 Z4.000000
G00 Z45.000000

(End cutting path id: rect17422)


(Start cutting path id: rect17422)
(Change tool to Cylindrical cutter)

G00 Z45.000000
G00 X37.467481 Y81.559899

G01 Z3.000000 F100.0(Penetrate)
G03 X21.825652 Y76.190615 Z3.000000 I1.446392 J-29.682216 F200.000000
G03 X11.475889 Y63.291840 Z3.000000 I17.088221 J-24.312932
G03 X9.623417 Y46.858205 Z3.000000 I27.437985 J-11.414157
G03 X16.841931 Y31.979056 Z3.000000 I29.290456 J5.019478
G01 X15.340987 Y31.979056 Z3.000000
G03 X11.008601 Y30.121395 Z3.000000 I-0.000000 J-5.980767
G03 X9.148352 Y25.468342 Z3.000000 I4.889232 J-4.653053
G01 X9.148352 Y15.945811 Z3.000000
G03 X11.008600 Y11.292751 Z3.000000 I6.749502 J0.000000
G03 X15.340987 Y9.435085 Z3.000000 I4.332388 J4.123095
G01 X59.315655 Y9.435085 Z3.000000
G03 X63.642201 Y11.293740 Z3.000000 I0.000049 J5.964842
G03 X65.498351 Y15.945811 Z3.000000 I-4.901668 J4.652071
G01 X65.498351 Y25.468342 Z3.000000
G03 X64.085364 Y29.619763 Z3.000000 I-6.805028 J-0.000000
G03 X60.747019 Y31.800135 Z3.000000 I-4.789765 J-3.687719
G03 X63.321633 Y35.007429 Z3.000000 I-21.831581 J20.162045
G03 X65.428772 Y38.539472 Z3.000000 I-24.406195 J16.954752
G01 X38.869025 Y51.878985 Z3.000000
G01 X65.498351 Y65.059460 Z3.000000
G03 X53.940830 Y77.485173 Z3.000000 I-26.632794 J-13.184092
G03 X37.467481 Y81.559899 Z3.000000 I-15.075273 J-25.609805
G01 X37.467481 Y81.559899 Z3.000000
G00 Z45.000000

(End cutting path id: rect17422)


(Start cutting path id: rect17422)
(Change tool to Cylindrical cutter)

G00 Z45.000000
G00 X37.467481 Y81.559899

G01 Z2.000000 F100.0(Penetrate)
G03 X21.825652 Y76.190615 Z2.000000 I1.446392 J-29.682216 F200.000000
G03 X11.475889 Y63.291840 Z2.000000 I17.088221 J-24.312932
G03 X9.623417 Y46.858205 Z2.000000 I27.437985 J-11.414157
G03 X16.841931 Y31.979056 Z2.000000 I29.290456 J5.019478
G01 X15.340987 Y31.979056 Z2.000000
G03 X11.008601 Y30.121395 Z2.000000 I-0.000000 J-5.980767
G03 X9.148352 Y25.468342 Z2.000000 I4.889232 J-4.653053
G01 X9.148352 Y15.945811 Z2.000000
G03 X11.008600 Y11.292751 Z2.000000 I6.749502 J0.000000
G03 X15.340987 Y9.435085 Z2.000000 I4.332388 J4.123095
G01 X59.315655 Y9.435085 Z2.000000
G03 X63.642201 Y11.293740 Z2.000000 I0.000049 J5.964842
G03 X65.498351 Y15.945811 Z2.000000 I-4.901668 J4.652071
G01 X65.498351 Y25.468342 Z2.000000
G03 X64.085364 Y29.619763 Z2.000000 I-6.805028 J-0.000000
G03 X60.747019 Y31.800135 Z2.000000 I-4.789765 J-3.687719
G03 X63.321633 Y35.007429 Z2.000000 I-21.831581 J20.162045
G03 X65.428772 Y38.539472 Z2.000000 I-24.406195 J16.954752
G01 X38.869025 Y51.878985 Z2.000000
G01 X65.498351 Y65.059460 Z2.000000
G03 X53.940830 Y77.485173 Z2.000000 I-26.632794 J-13.184092
G03 X37.467481 Y81.559899 Z2.000000 I-15.075273 J-25.609805
G01 X37.467481 Y81.559899 Z2.000000
G00 Z45.000000

(End cutting path id: rect17422)


(Start cutting path id: rect17422)
(Change tool to Cylindrical cutter)

G00 Z45.000000
G00 X37.467481 Y81.559899

G01 Z1.000000 F100.0(Penetrate)
G03 X21.825652 Y76.190615 Z1.000000 I1.446392 J-29.682216 F200.000000
G03 X11.475889 Y63.291840 Z1.000000 I17.088221 J-24.312932
G03 X9.623417 Y46.858205 Z1.000000 I27.437985 J-11.414157
G03 X16.841931 Y31.979056 Z1.000000 I29.290456 J5.019478
G01 X15.340987 Y31.979056 Z1.000000
G03 X11.008601 Y30.121395 Z1.000000 I-0.000000 J-5.980767
G03 X9.148352 Y25.468342 Z1.000000 I4.889232 J-4.653053
G01 X9.148352 Y15.945811 Z1.000000
G03 X11.008600 Y11.292751 Z1.000000 I6.749502 J0.000000
G03 X15.340987 Y9.435085 Z1.000000 I4.332388 J4.123095
G01 X59.315655 Y9.435085 Z1.000000
G03 X63.642201 Y11.293740 Z1.000000 I0.000049 J5.964842
G03 X65.498351 Y15.945811 Z1.000000 I-4.901668 J4.652071
G01 X65.498351 Y25.468342 Z1.000000
G03 X64.085364 Y29.619763 Z1.000000 I-6.805028 J-0.000000
G03 X60.747019 Y31.800135 Z1.000000 I-4.789765 J-3.687719
G03 X63.321633 Y35.007429 Z1.000000 I-21.831581 J20.162045
G03 X65.428772 Y38.539472 Z1.000000 I-24.406195 J16.954752
G01 X38.869025 Y51.878985 Z1.000000
G01 X65.498351 Y65.059460 Z1.000000
G03 X53.940830 Y77.485173 Z1.000000 I-26.632794 J-13.184092
G03 X37.467481 Y81.559899 Z1.000000 I-15.075273 J-25.609805
G01 X37.467481 Y81.559899 Z1.000000
G00 Z45.000000

(End cutting path id: rect17422)


(Start cutting path id: rect17422)
(Change tool to Cylindrical cutter)

G00 Z45.000000
G00 X37.467481 Y81.559899

G01 Z0.000000 F100.0(Penetrate)
G03 X21.825652 Y76.190615 Z0.000000 I1.446392 J-29.682216 F200.000000
G03 X11.475889 Y63.291840 Z0.000000 I17.088221 J-24.312932
G03 X9.623417 Y46.858205 Z0.000000 I27.437985 J-11.414157
G03 X16.841931 Y31.979056 Z0.000000 I29.290456 J5.019478
G01 X15.340987 Y31.979056 Z0.000000
G03 X11.008601 Y30.121395 Z0.000000 I-0.000000 J-5.980767
G03 X9.148352 Y25.468342 Z0.000000 I4.889232 J-4.653053
G01 X9.148352 Y15.945811 Z0.000000
G03 X11.008600 Y11.292751 Z0.000000 I6.749502 J0.000000
G03 X15.340987 Y9.435085 Z0.000000 I4.332388 J4.123095
G01 X59.315655 Y9.435085 Z0.000000
G03 X63.642201 Y11.293740 Z0.000000 I0.000049 J5.964842
G03 X65.498351 Y15.945811 Z0.000000 I-4.901668 J4.652071
G01 X65.498351 Y25.468342 Z0.000000
G03 X64.085364 Y29.619763 Z0.000000 I-6.805028 J-0.000000
G03 X60.747019 Y31.800135 Z0.000000 I-4.789765 J-3.687719
G03 X63.321633 Y35.007429 Z0.000000 I-21.831581 J20.162045
G03 X65.428772 Y38.539472 Z0.000000 I-24.406195 J16.954752
G01 X38.869025 Y51.878985 Z0.000000
G01 X65.498351 Y65.059460 Z0.000000
G03 X53.940830 Y77.485173 Z0.000000 I-26.632794 J-13.184092
G03 X37.467481 Y81.559899 Z0.000000 I-15.075273 J-25.609805
G01 X37.467481 Y81.559899 Z0.000000
G00 Z45.000000

(End cutting path id: rect17422)


(Footer)
M5
G00 X0.0000 Y0.0000
M2
(Using default footer. To add your own footer create file "footer" in the output dir.)
(end)
%